X:13
T:Charles Nicholson
R:reel
C:Elmer Briand
O:20 century Cape Breton
S:Silver Apple News, 2004
D:Carl MacKenzie, It's a Corker
Z:Paul Stewart Cranford (P.S.C.), <http://www.cranfordpub.com>
Q:333
L:1/8
M:C|
K:Gdor
dG G/G/G FGDF|CDFG AFAc|dG G/G/G FGDF|CDFA, G,/G,/G, G,f|
dG G/G/G FGDF|CDFG AFAb|agfa gfdc|dfcA G/G/G G||
|:f|dcdf gagf|dfcf dfcf|dcdf gagf|dfcA G/G/G G z|
dcdf gagf|dfcf dfcf|bagf agfc|dcdf gagf|]
